src/assets/images/form_gender_input_widget.svg

<svg version="1.1" id="Ebene_1" xmlns="http://www.w3.org/2000/svg" x="0" y="0" viewBox="0 0 150 100" style="enable-background:new 0 0 150 100" xml:space="preserve"><style>.st0{fill:#aaa}.st2{fill:#fff}</style><path class="st0" d="M48.7 58.9v13.9h-14V58.9h14m2-2h-18v17.9h18V56.9zM60.1 67.3v-1.4h3.7v3.4c-.4.4-.9.7-1.6.9s-1.4.4-2.1.4c-.9 0-1.7-.2-2.3-.6s-1.2-.9-1.5-1.6-.5-1.5-.5-2.3c0-.9.2-1.7.6-2.4.4-.7.9-1.2 1.6-1.6.6-.3 1.2-.4 2.1-.4 1.1 0 1.9.2 2.5.7s1 1.1 1.2 1.9l-1.8.3c-.1-.4-.3-.8-.7-1s-.8-.4-1.3-.4c-.8 0-1.4.2-1.8.7-.4.5-.7 1.2-.7 2.1 0 1 .2 1.8.7 2.3s1 .8 1.8.8c.4 0 .7-.1 1.1-.2s.7-.3.9-.5v-1.1h-1.9zM69 68.5l1.6.3c-.2.6-.5 1.1-1 1.4s-1 .5-1.7.5c-1.1 0-1.9-.4-2.4-1.1-.4-.6-.6-1.3-.6-2.1 0-1 .3-1.8.8-2.4s1.2-.9 2-.9c.9 0 1.7.3 2.2.9s.8 1.5.8 2.8h-4.1c0 .5.1.9.4 1.1s.6.4.9.4c.3 0 .5-.1.7-.2s.3-.4.4-.7zm.1-1.7c0-.5-.1-.8-.4-1.1s-.5-.4-.9-.4-.7.1-.9.4-.3.6-.3 1.1h2.5zM77.7 70.5h-1.6v-3.2c0-.7 0-1.1-.1-1.3s-.2-.4-.3-.5-.3-.2-.6-.2-.5.1-.8.2-.4.4-.5.6-.1.7-.1 1.4v2.8h-1.6v-6.2h1.5v.9c.5-.7 1.2-1.1 2.1-1.1.4 0 .7.1 1 .2s.5.3.7.5.3.4.3.7.1.6.1 1.1v4.1zM85.1 70.5h-1.5v-.9c-.3.4-.6.6-.9.8s-.7.3-1 .3c-.7 0-1.3-.3-1.8-.9s-.9-1.4-.9-2.5.2-1.9.7-2.4 1.1-.8 1.9-.8c.7 0 1.3.3 1.8.9v-3.1H85v8.6zm-4.4-3.3c0 .7.1 1.1.3 1.4.3.4.6.6 1.1.6.4 0 .7-.2 1-.5s.4-.8.4-1.4c0-.7-.1-1.2-.4-1.5s-.6-.5-1-.5-.7.2-1 .5-.4.8-.4 1.4zM90.4 68.5l1.6.3c-.2.6-.5 1.1-1 1.4s-1 .5-1.7.5c-1.1 0-1.9-.4-2.4-1.1-.4-.6-.6-1.3-.6-2.1 0-1 .3-1.8.8-2.4s1.2-.9 2-.9c.9 0 1.7.3 2.2.9s.8 1.5.8 2.8H88c0 .5.1.9.4 1.1s.6.4.9.4c.3 0 .5-.1.7-.2s.3-.4.4-.7zm0-1.7c0-.5-.1-.8-.4-1.1s-.5-.4-.9-.4-.7.1-.9.4-.2.7-.2 1.1h2.4zM95 70.5h-1.6v-6.2h1.5v.9c.3-.4.5-.7.7-.8s.4-.2.7-.2c.4 0 .7.1 1.1.3l-.5 1.4c-.3-.2-.5-.3-.8-.3-.2 0-.4.1-.6.2s-.3.4-.4.7-.1 1-.1 2.1v1.9zM118.9 16.3h-5v2h5v-2zm-7 0h-5v2h5v-2zm-7 0h-5v2h5v-2zm-7 0h-5v2h5v-2zm-7 0h-5v2h5v-2zm-7 0h-5v2h5v-2zm-7 0h-5v2h5v-2zm-7 0h-5v2h5v-2zm-7 0h-5v2h5v-2zm-7 0h-5v2h5v-2zm-7 0h-5v2h5v-2zm-7 0h-5v2h5v-2zm-7 0h-5v2h5v-2zm-7 0h-3.7v2h3.7v-2zm-1.8 3.3h-2v5h2v-5zm0 7h-2v5h2v-5zm0 7h-2v5h2v-5zm0 7h-2v5h2v-5zm0 7h-2v5h2v-5zm0 7h-2v5h2v-5zm0 7h-2v5h2v-5zm0 7h-2v5h2v-5zm0 7h-2v5h2v-5zm1.9 6.1h-3.9v.9-.9 2H28v-2zm7 0h-5v2h5v-2zm7 0h-5v2h5v-2zm7 0h-5v2h5v-2zm7 0h-5v2h5v-2zm7 0h-5v2h5v-2zm7 0h-5v2h5v-2zm7 0h-5v2h5v-2zm7 0h-5v2h5v-2zm7 0h-5v2h5v-2zm7 0h-5v2h5v-2zm7 0h-5v2h5v-2zm7 0h-5v2h5v-2zm7 0h-5v2h5v-2zm6.9 0H121v2h4.8v-2h.1zm0-5.2h-2v5h2v-5zm0-7h-2v5h2v-5zm0-7h-2v5h2v-5zm0-7h-2v5h2v-5zm0-7h-2v5h2v-5zm0-7h-2v5h2v-5zm0-7h-2v5h2v-5zm0-7h-2v5h2v-5zm0-7h-2v5h2v-5zm0-4.2h-5v2h3v.2h2v-2.2z"/><path style="fill:none;stroke:#aaa;stroke-width:2" d="m36.6 64.9 5.1 4.5 5.1-8.9"/><path class="st0" d="M68.3 39.7H40.8a6.7 6.7 0 0 1 0-13.4h27.5a6.7 6.7 0 0 1 0 13.4z"/><path class="st2" d="M41.1 36.5v-6.9h4.7v1.2h-3.3v1.6h2.9v1.2h-2.9v2.9h-1.4zM46.7 33.1c0-.7.1-1.3.3-1.8.2-.4.4-.7.6-.9.3-.3.6-.5.9-.6.4-.2.9-.3 1.5-.3 1 0 1.8.3 2.4.9s.9 1.5.9 2.6-.3 2-.9 2.6c-.6.6-1.4.9-2.4.9s-1.8-.3-2.5-.9-.8-1.4-.8-2.5zm1.4-.1c0 .8.2 1.4.5 1.8.4.4.8.6 1.4.6.6 0 1-.2 1.4-.6.4-.4.5-1 .5-1.8s-.2-1.4-.5-1.8c-.3-.4-.8-.6-1.4-.6-.6 0-1 .2-1.4.6-.3.4-.5 1-.5 1.8zM54.5 36.5v-6.9h2.9c.7 0 1.3.1 1.6.2.3.1.6.3.8.7.2.3.3.7.3 1.1 0 .5-.2.9-.5 1.3-.3.3-.8.6-1.4.6.3.2.6.4.7.6.2.2.5.6.8 1.1l.8 1.3H59L58 35c-.4-.5-.6-.9-.7-1-.1-.1-.3-.2-.4-.3-.1-.1-.4-.1-.7-.1h-.3v2.9h-1.4zm1.3-4h1c.7 0 1.1 0 1.3-.1.2-.1.3-.2.4-.3.1-.1.1-.3.1-.5s-.1-.4-.2-.6c-.1-.1-.3-.2-.5-.3h-2.1v1.8zM61.4 36.5v-6.9h2.1l1.3 4.7 1.2-4.7h2.1v6.9h-1.3V31l-1.4 5.4h-1.3L62.7 31v5.4h-1.3z"/></svg>

<?xml version="1.0" encoding="utf-8"?>
<!-- Generator: Adobe Illustrator 25.4.1, SVG Export Plug-In . SVG Version: 6.00 Build 0)  -->
<svg version="1.1" id="Ebene_1" xmlns="http://www.w3.org/2000/svg" xmlns:xlink="http://www.w3.org/1999/xlink" x="0px" y="0px"
	 viewBox="0 0 150 100" style="enable-background:new 0 0 150 100;" xml:space="preserve">
<style type="text/css">
	.st0{fill:#AAAAAA;}
	.st1{fill:none;stroke:#AAAAAA;stroke-width:2;}
	.st2{fill:#FFFFFF;}
</style>
<desc>Created with Sketch.</desc>
<g>
	<path class="st0" d="M48.7,58.9v13.9h-14V58.9H48.7 M50.7,56.9h-18v17.9h18V56.9L50.7,56.9z"/>
</g>
<g>
	<path class="st0" d="M60.1,67.3v-1.4h3.7v3.4c-0.4,0.4-0.9,0.7-1.6,0.9s-1.4,0.4-2.1,0.4c-0.9,0-1.7-0.2-2.3-0.6s-1.2-0.9-1.5-1.6
		s-0.5-1.5-0.5-2.3c0-0.9,0.2-1.7,0.6-2.4c0.4-0.7,0.9-1.2,1.6-1.6c0.6-0.3,1.2-0.4,2.1-0.4c1.1,0,1.9,0.2,2.5,0.7s1,1.1,1.2,1.9
		L62,64.6c-0.1-0.4-0.3-0.8-0.7-1s-0.8-0.4-1.3-0.4c-0.8,0-1.4,0.2-1.8,0.7c-0.4,0.5-0.7,1.2-0.7,2.1c0,1,0.2,1.8,0.7,2.3
		s1,0.8,1.8,0.8c0.4,0,0.7-0.1,1.1-0.2s0.7-0.3,0.9-0.5v-1.1H60.1z"/>
	<path class="st0" d="M69,68.5l1.6,0.3c-0.2,0.6-0.5,1.1-1,1.4s-1,0.5-1.7,0.5c-1.1,0-1.9-0.4-2.4-1.1c-0.4-0.6-0.6-1.3-0.6-2.1
		c0-1,0.3-1.8,0.8-2.4s1.2-0.9,2-0.9c0.9,0,1.7,0.3,2.2,0.9s0.8,1.5,0.8,2.8h-4.1c0,0.5,0.1,0.9,0.4,1.1s0.6,0.4,0.9,0.4
		c0.3,0,0.5-0.1,0.7-0.2S68.9,68.8,69,68.5z M69.1,66.8c0-0.5-0.1-0.8-0.4-1.1s-0.5-0.4-0.9-0.4c-0.4,0-0.7,0.1-0.9,0.4
		s-0.3,0.6-0.3,1.1H69.1z"/>
	<path class="st0" d="M77.7,70.5h-1.6v-3.2c0-0.7,0-1.1-0.1-1.3s-0.2-0.4-0.3-0.5s-0.3-0.2-0.6-0.2c-0.3,0-0.5,0.1-0.8,0.2
		s-0.4,0.4-0.5,0.6s-0.1,0.7-0.1,1.4v2.8h-1.6v-6.2h1.5v0.9c0.5-0.7,1.2-1.1,2.1-1.1c0.4,0,0.7,0.1,1,0.2s0.5,0.3,0.7,0.5
		s0.3,0.4,0.3,0.7s0.1,0.6,0.1,1.1V70.5z"/>
	<path class="st0" d="M85.1,70.5h-1.5v-0.9c-0.3,0.4-0.6,0.6-0.9,0.8s-0.7,0.3-1,0.3c-0.7,0-1.3-0.3-1.8-0.9S79,68.4,79,67.3
		c0-1.1,0.2-1.9,0.7-2.4s1.1-0.8,1.9-0.8c0.7,0,1.3,0.3,1.8,0.9v-3.1h1.6V70.5z M80.7,67.2c0,0.7,0.1,1.1,0.3,1.4
		c0.3,0.4,0.6,0.6,1.1,0.6c0.4,0,0.7-0.2,1-0.5s0.4-0.8,0.4-1.4c0-0.7-0.1-1.2-0.4-1.5s-0.6-0.5-1-0.5c-0.4,0-0.7,0.2-1,0.5
		S80.7,66.6,80.7,67.2z"/>
	<path class="st0" d="M90.4,68.5l1.6,0.3c-0.2,0.6-0.5,1.1-1,1.4s-1,0.5-1.7,0.5c-1.1,0-1.9-0.4-2.4-1.1c-0.4-0.6-0.6-1.3-0.6-2.1
		c0-1,0.3-1.8,0.8-2.4s1.2-0.9,2-0.9c0.9,0,1.7,0.3,2.2,0.9s0.8,1.5,0.8,2.8H88c0,0.5,0.1,0.9,0.4,1.1s0.6,0.4,0.9,0.4
		c0.3,0,0.5-0.1,0.7-0.2S90.3,68.8,90.4,68.5z M90.4,66.8c0-0.5-0.1-0.8-0.4-1.1s-0.5-0.4-0.9-0.4c-0.4,0-0.7,0.1-0.9,0.4
		S88,66.4,88,66.8H90.4z"/>
	<path class="st0" d="M95,70.5h-1.6v-6.2h1.5v0.9c0.3-0.4,0.5-0.7,0.7-0.8s0.4-0.2,0.7-0.2c0.4,0,0.7,0.1,1.1,0.3l-0.5,1.4
		c-0.3-0.2-0.5-0.3-0.8-0.3c-0.2,0-0.4,0.1-0.6,0.2s-0.3,0.4-0.4,0.7s-0.1,1-0.1,2.1V70.5z"/>
</g>
<g>
	<path class="st0" d="M118.9,16.3h-5v2h5V16.3L118.9,16.3z M111.9,16.3h-5v2h5V16.3L111.9,16.3z M104.9,16.3h-5v2h5V16.3L104.9,16.3
		z M97.9,16.3h-5v2h5V16.3L97.9,16.3z M90.9,16.3h-5v2h5V16.3L90.9,16.3z M83.9,16.3h-5v2h5V16.3L83.9,16.3z M76.9,16.3h-5v2h5V16.3
		L76.9,16.3z M69.9,16.3h-5v2h5V16.3L69.9,16.3z M62.9,16.3h-5v2h5V16.3L62.9,16.3z M55.9,16.3h-5v2h5V16.3L55.9,16.3z M48.9,16.3
		h-5v2h5V16.3L48.9,16.3z M41.9,16.3h-5v2h5V16.3L41.9,16.3z M34.9,16.3h-5v2h5V16.3L34.9,16.3z M27.9,16.3h-3.7v2h3.7V16.3
		L27.9,16.3z M26.1,19.6h-2v5h2V19.6L26.1,19.6z M26.1,26.6h-2v5h2V26.6L26.1,26.6z M26.1,33.6h-2v5h2V33.6L26.1,33.6z M26.1,40.6
		h-2v5h2V40.6L26.1,40.6z M26.1,47.6h-2v5h2V47.6L26.1,47.6z M26.1,54.6h-2v5h2V54.6L26.1,54.6z M26.1,61.6h-2v5h2V61.6L26.1,61.6z
		 M26.1,68.6h-2v5h2V68.6L26.1,68.6z M26.1,75.6h-2v5h2V75.6L26.1,75.6z M28,81.7h-3.9v0.9l0,0v-0.9v0.9l0,0v1.1h2l0,0l0,0l0,0l0,0
		c1,0,1.9,0,1.9,0V81.7L28,81.7z M35,81.7h-5v2h5V81.7L35,81.7z M42,81.7h-5v2h5V81.7L42,81.7z M49,81.7h-5v2h5V81.7L49,81.7z
		 M56,81.7h-5v2h5V81.7L56,81.7z M63,81.7h-5v2h5V81.7L63,81.7z M70,81.7h-5v2h5V81.7L70,81.7z M77,81.7h-5v2h5V81.7L77,81.7z
		 M84,81.7h-5v2h5V81.7L84,81.7z M91,81.7h-5v2h5V81.7L91,81.7z M98,81.7h-5v2h5V81.7L98,81.7z M105,81.7h-5v2h5V81.7L105,81.7z
		 M112,81.7h-5v2h5V81.7L112,81.7z M119,81.7h-5v2h5V81.7L119,81.7z M125.9,81.7H121v2h4.8V81.7L125.9,81.7z M125.9,76.5h-2v5h2
		V76.5L125.9,76.5z M125.9,69.5h-2v5h2V69.5L125.9,69.5z M125.9,62.5h-2v5h2V62.5L125.9,62.5z M125.9,55.5h-2v5h2V55.5L125.9,55.5z
		 M125.9,48.5h-2v5h2V48.5L125.9,48.5z M125.9,41.5h-2v5h2V41.5L125.9,41.5z M125.9,34.5h-2v5h2V34.5L125.9,34.5z M125.9,27.5h-2v5
		h2V27.5L125.9,27.5z M125.9,20.5h-2v5h2V20.5L125.9,20.5z M125.9,16.3h-5v2h3v0.2h2V16.3L125.9,16.3z"/>
</g>
<polyline class="st1" points="36.6,64.9 41.7,69.4 46.8,60.5 "/>
<g>
	<path class="st0" d="M68.3,39.7H40.8c-3.7,0-6.7-3-6.7-6.7v0c0-3.7,3-6.7,6.7-6.7h27.5c3.7,0,6.7,3,6.7,6.7v0
		C75,36.7,72,39.7,68.3,39.7z"/>
	<g>
		<path class="st2" d="M41.1,36.5v-6.9h4.7v1.2h-3.3v1.6h2.9v1.2h-2.9v2.9H41.1z"/>
		<path class="st2" d="M46.7,33.1c0-0.7,0.1-1.3,0.3-1.8c0.2-0.4,0.4-0.7,0.6-0.9c0.3-0.3,0.6-0.5,0.9-0.6c0.4-0.2,0.9-0.3,1.5-0.3
			c1,0,1.8,0.3,2.4,0.9s0.9,1.5,0.9,2.6c0,1.1-0.3,2-0.9,2.6c-0.6,0.6-1.4,0.9-2.4,0.9c-1,0-1.8-0.3-2.5-0.9S46.7,34.2,46.7,33.1z
			 M48.1,33c0,0.8,0.2,1.4,0.5,1.8c0.4,0.4,0.8,0.6,1.4,0.6c0.6,0,1-0.2,1.4-0.6c0.4-0.4,0.5-1,0.5-1.8c0-0.8-0.2-1.4-0.5-1.8
			c-0.3-0.4-0.8-0.6-1.4-0.6c-0.6,0-1,0.2-1.4,0.6C48.3,31.6,48.1,32.2,48.1,33z"/>
		<path class="st2" d="M54.5,36.5v-6.9h2.9c0.7,0,1.3,0.1,1.6,0.2c0.3,0.1,0.6,0.3,0.8,0.7c0.2,0.3,0.3,0.7,0.3,1.1
			c0,0.5-0.2,0.9-0.5,1.3c-0.3,0.3-0.8,0.6-1.4,0.6c0.3,0.2,0.6,0.4,0.7,0.6c0.2,0.2,0.5,0.6,0.8,1.1l0.8,1.3H59L58,35
			c-0.4-0.5-0.6-0.9-0.7-1c-0.1-0.1-0.3-0.2-0.4-0.3c-0.1-0.1-0.4-0.1-0.7-0.1h-0.3v2.9H54.5z M55.8,32.5h1c0.7,0,1.1,0,1.3-0.1
			c0.2-0.1,0.3-0.2,0.4-0.3c0.1-0.1,0.1-0.3,0.1-0.5c0-0.2-0.1-0.4-0.2-0.6c-0.1-0.1-0.3-0.2-0.5-0.3c-0.1,0-0.5,0-1,0h-1.1V32.5z"
			/>
		<path class="st2" d="M61.4,36.5v-6.9h2.1l1.3,4.7l1.2-4.7h2.1v6.9h-1.3V31l-1.4,5.4h-1.3L62.7,31v5.4H61.4z"/>
	</g>
</g>
</svg>
